!!!!SEGMENT: pl-gd--ee-1638--008-013_marenzio-luca--il-quarto-libro-de-madrigalia-a-sei-voci-non-puo-fili-piu-il-core.krn
!!!cenid: 15xx:875
!!!COM: Marenzio, Luca
!!!COM-rismID: pe30003955
!!!CDT: ~1553-1599/08/22
!!!CNT: Italian
!!!GTL: Il Quarto Libro de madrigalia a sei voci
!!!OTL: Non può Fili più il core
!!!OMV: 013
!!!PDT: 1587
!!!AGN:
!!!SMS-siglum: PL-GD
!!!SMS-shelfmark: Ee 1638
!!!SMS-variant:
!!!SMS-altvar:
!!!SMS-shelfwork: 008-013 G
!!!NIFC-rismSourceID: 1001202747
!!!NIFC-rismChildID: 990039254
!!!NIFC-islandoraID: pl-gd:57883
!!!URL-pdf-islandora: https://repozytorium.nifc.pl/islandora/object/pl-gd%3A57883/datastream/PDF/view
!!!URL-scan: https://polish.musicsources.pl/pl/lokalizacje/galeria/klocki-introligatorskie/655 @EN{Scan on Polish Music Sources Website} @PL{Skany w portalu Dziedzictwo Muzyki Polskiej w otwartym dostępie}
!!!ONB-nifc: UWAGA: zbiór na stronach: Canto: s. 706-716, Alto: s. 554-564, Tenore: s. 402-412, Basso: s.250-260, Quinto: s. 98-108, Sesto: s. 16-26. Uwaga: utwory podzielone wg tytułów w spisach treści dostępnych na końcu każdej księgi głosowej.
!!!AIN: 1 alto 1 bass 2 soprn 2 tenor
!!!key:
**kern	**text	**kern	**text	**kern	**text	**kern	**text	**kern	**text	**kern	**text
*part6	*part6	*part5	*part5	*part4	*part4	*part3	*part3	*part2	*part2	*part1	*part1
*staff6	*staff6	*staff5	*staff5	*staff4	*staff4	*staff3	*staff3	*staff2	*staff2	*staff1	*staff1
*I"Sesto	*	*I"Quinto	*	*I"Basso	*	*I"Tenore	*	*I"Alto	*	*I"Canto	*
*I'V.	*	*I'Q	*	*I'B	*	*I'T	*	*I'A	*	*I'C	*
*Itenor	*	*Isoprn	*	*Ibass	*	*Itenor	*	*Ialto	*	*Isoprn	*
*ICvox	*	*ICvox	*	*ICvox	*	*ICvox	*	*Cvox	*	*ICvox	*
*clefC4	*	*clefC2	*	*clefF4	*	*clefC4	*	*clefC3	*	*clefC1	*
*k[]	*	*k[]	*	*k[]	*	*k[]	*	*k[]	*	*k[]	*
*a:	*	*a:	*	*a:	*	*a:	*	*a:	*	*a:	*
*M2/1	*	*M2/1	*	*M2/1	*	*M2/1	*	*M2/1	*	*M2/1	*
=1-	=1-	=1-	=1-	=1-	=1-	=1-	=1-	=1-	=1-	=1-	=1-
*xywh-#22:4507,608,3331,794	*	*xywh-#104:4502,567,3428,836	*	*xywh-#256:4829,617,3320,868	*	*xywh-#408:4741,541,3340,783	*	*xywh-#560:4649,566,3348,783	*	*xywh-#712:4768,548,3354,806	*
!	!	!	!	!	!	!	!	!	!	!LO:TX:a:B:t=Prestissimo	!
00r	.	2r	.	00r	.	1A	NOn	2r	.	2r	.
.	.	2e/	NOn	.	.	.	.	2c/	NOn	2a\	Non
.	.	2g\	puo	.	.	2G/	puo	2d\	puo	2b\	puo
.	.	2.a\	Fil-	.	.	2.F/	Fil-	2.f\	Fil-	2.cc\	Fil-
=2-	=2-	=2-	=2-	=2-	=2-	=2-	=2-	=2-	=2-	=2-	=2-
.	.	.	.	.	.	.	.	.	.	.	.
.	.	4a\	-li	.	.	4F/	-li	4f\	-li	4cc\	-li
.	.	2g\	piu il	.	.	2C/	piu il	1e	piu il	2cc\	piu il
.	.	1f	co-	.	.	1D	co-	.	.	1a	co-
.	.	.	.	.	.	.	.	1d\	co-	.	.
=3-	=3-	=3-	=3-	=3-	=3-	=3-	=3-	=3-	=3-	=3-	=3-
1r	.	1e	-re	1r	.	1A	-re	.	.	1a	-re
.	.	.	.	.	.	.	.	2c#X/	-re	.	.
2r	.	1r	.	1A	Non	2r	.	1r	.	2r	.
2A/	NOn	.	.	.	.	2c\	Non	.	.	2e/	/Non
=4-	=4-	=4-	=4-	=4-	=4-	=4-	=4-	=4-	=4-	=4-	=4-
2B\	puo	00r	.	2G\	puo	2d\	puo	00r	.	2g/	puo
2.c\	Fil-	.	.	2.F\	Fil-	2.f\	Fil-	.	.	2.a\	Fil-
4c\	-li	.	.	4F\	-li	4f\	-li	.	.	4a\	-li
2c\	piu il	.	.	2C/	piu il	1e\	piu il	.	.	2g/	pi il
=5-	=5-	=5-	=5-	=5-	=5-	=5-	=5-	=5-	=5-	=5-	=5-
1A	co-	.	.	1D	co-	.	.	.	.	1f	co-
.	.	.	.	.	.	1d	co-	.	.	.	.
1A	-re	.	.	1AA	-re	.	.	.	.	1e	-re/
!	!	!	!	!	!	!LO:SIC:v:t=custos c	!	!	!	!	!
.	.	.	.	.	.	2c#X\	-re	.	.	.	.
=6-	=6-	=6-	=6-	=6-	=6-	=6-	=6-	=6-	=6-	=6-	=6-
00r	.	4.a\	Mi-	4.D/	Mi-	0r	.	4.d\	Mi-	4.f#X/	Mi-
!	!	!	!	!	!	!	!	!	!	!LO:SIC:v:t=custos f	!
.	.	8a\	-ra	8D/	-ra	.	.	8d\	-ra	8f#/	-ra
!	!	!	!	!	!	!	!	!	!	!LO:LB:g=original	!
*	*	*	*	*	*	*	*	*	*	*xywh-#712:4738,1164,3399,714	*
.	.	4a\	pur	4D/	pur	.	.	4d\	pur	4f#/	pur
.	.	2b\	tu	2G\	tu	.	.	2d\	tu	2g/	tu
.	.	4cc\	l'ef-	4E\	l'ef-	.	.	4e\	l'ef-	4g/	l'ef-
!	!	!LO:SIC:v:t=custos g	!	!LO:SIC:v:t=custos C	!	!	!	!LO:SIC:v:t=custos c	!	!	!
.	.	2a\	-fet-	2F\	-fet-	.	.	2cny/	-fet-	2fny/	-fet-
=7-	=7-	=7-	=7-	=7-	=7-	=7-	=7-	=7-	=7-	=7-	=7-
!	!	!	!	!	!	!	!	!LO:LB:g=original	!	!	!
!	!	!	!	!LO:LB:g=original	!	!	!	!	!	!	!
!	!	!LO:LB:g=original	!	!	!	!	!	!	!	!	!
*	*	*xywh-#104:4488,1244,3456,691	*	*xywh-#256:4806,1268,3374,729	*	*	*	*xywh-#560:4695,1257,3317,645	*	*	*
.	.	4g\	-to	2C/	-to	4r	.	2c/	-to	4e/	-to
!	!	!	!	!	!	!LO:LB:g=original	!	!	!	!	!
*	*	*	*	*	*	*xywh-#408:4733,1186,3348,698	*	*	*	*	*
.	.	4e/	De	.	.	4cny\	De	.	.	4g/	Del
.	.	4d/	l'ar-	2r	.	4B\	l'ar-	2r	.	4g/	ar-
.	.	4.e/	-den-	.	.	4.c\	-den-	.	.	4.g/	-den-
.	.	.	.	1r	.	.	.	1r	.	.	.
.	.	8d/	-te	.	.	8d\	-te	.	.	8f/	-te
.	.	4d/	mio	.	.	4B-X\	mio af-	.	.	4d/	mio
.	.	2c#X/	affet-	.	.	2A/	-fet-	.	.	2e/	affet-
=8-	=8-	=8-	=8-	=8-	=8-	=8-	=8-	=8-	=8-	=8-	=8-
2r	.	2d/	-to	2r	.	2D/	-to	2r	.	2f#X/	-to
4.d\	Mi-	2r	.	4.D/	Mi-	2r	.	4.f#X\	Mi-	4.a\	Mi-
8d\	-ra	.	.	8D/	-ra	.	.	8f#\	-ra	8a\	-ra
4d\	pur	1r	.	4D/	pur	1r	.	4f#\	pur	4a\	pur
2d\	tu	.	.	2G\	tu	.	.	2g\	tu	2b\	tu
!LO:SIC:v:t=custos c	!	!	!	!	!	!	!	!	!	!	!
4e\	l'ef-	.	.	4E\	l'ef-	.	.	4g\	l'e-	4cc\	l'ef-
=9-	=9-	=9-	=9-	=9-	=9-	=9-	=9-	=9-	=9-	=9-	=9-
!LO:LB:g=original	!	!	!	!	!	!	!	!	!	!	!
*	*	*	*	*	*	*	*	*	*	*	*
2c\	-fet-	2r	.	2F\	-fet-	0r	.	2fny\	-fet-	2a\	-fet-
4c\	-to	4r	.	4C/	-to	.	.	4e\	-to	2g/	-to
4d\	De	4b\	De	4G\	De	.	.	4g\	De	.	.
!	!	!	!	!	!	!	!	!	!	!LO:SIC:v:t=custos cc	!
4d\	l'ar-	4a\	l ar-	4F#X\	l'ar-	.	.	4a\	l'ar-	1r	.
4.d\	-den-	4.b\	-den-	4.G\	-den-	.	.	4.g\	-den-	.	.
8c\	-te	8a\	-te	8A\	-te	.	.	8e\	-te	.	.
4A/	mio af-	4a\	mio	4F#\	mio	.	.	4d\	mio af-	.	.
=10-	=10-	=10-	=10-	=10-	=10-	=10-	=10-	=10-	=10-	=10-	=10-
2B\	-fet-	2g#X\	affet-	2E\	affet-	1r	.	2e\	-fet-	2r	.
2A/	-to	2a\	-to	2AA/	-to	.	.	2e\	-to	4r	.
!	!	!	!	!	!	!	!	!	!	!LO:LB:g=original	!
*	*	*	*	*	*	*	*	*	*	*xywh-#712:4745,1727,3354,692	*
.	.	.	.	.	.	.	.	.	.	2cc\	Che
4r	.	2r	.	2A\	Che	2c\	Che	4r	.	.	.
2A/	Che	.	.	.	.	.	.	2c/	Che	4.ee\	ſi
.	.	4r	.	4.c\	ſi	4.e\	ſi	.	.	.	.
.	.	.	.	.	.	.	.	.	.	8dd\	tra-
4c\	ſi	4g#\	Che	.	.	.	.	4.e\	ſi	4.cc\	-boc-
!	!	!	!	!LO:SIC:v:t=custos A	!	!	!	!	!	!	!
.	.	.	.	8B\	tra-	8d\	tra-	.	.	.	.
=11-	=11-	=11-	=11-	=11-	=11-	=11-	=11-	=11-	=11-	=11-	=11-
!	!	!	!	!LO:LB:g=original	!	!	!	!	!	!	!
*	*	*	*	*xywh-#256:4790,1796,3390,713	*	*	*	*	*	*	*
4e\	tra-	4.a\	ſi	4.A\	-boc-	4.c\	-boc-	.	.	.	.
.	.	.	.	.	.	.	.	8d\	tra-	8b\	-ca
4.A/	-boc-	.	.	.	.	.	.	4.c/	-boc-	2a\	giu
!	!	!LO:SIC:v:t=custos cc	!	!	!	!	!	!	!	!	!
.	.	8b\	tra-	8G\	-ca	8Bny\	-ca	.	.	.	.
!	!	!LO:LB:g=original	!	!	!	!	!	!	!	!	!
*	*	*xywh-#104:4522,1811,3386,608	*	*	*	*	*	*	*	*	*
.	.	4cc\	-boc-	2Fny\	giu	2A/	giu	.	.	.	.
8G/	-ca	.	.	.	.	.	.	8B/	-ca	.	.
!	!	!	!	!	!	!	!	!LO:SIC:v:t=custos A	!	!	!
4F/	giu	4cc\	-ce	.	.	.	.	4A/	giu	2a\	Che
4r	.	2cny/	giu	2F\	Che	2A/	Che	4r	.	.	.
!	!	!	!	!	!	!	!	!LO:LB:g=original	!	!	!
*	*	*	*	*	*	*	*	*xywh-#560:4641,1787,3363,645	*	*	*
2F/	Che	.	.	.	.	.	.	2A/	Che	4.cc\	ſi
.	.	4r	.	4.A\	ſi	4.c\	ſi	.	.	.	.
.	.	.	.	.	.	.	.	.	.	8b\	tra-
!LO:SIC:v:t=custos c	!	!	!	!	!	!	!	!	!	!	!
4A/	ſi	4e/	Che	.	.	.	.	4.c/	ſi	4.a\	-boc-
.	.	.	.	8G\	tra-	8B\	tra-	.	.	.	.
=12-	=12-	=12-	=12-	=12-	=12-	=12-	=12-	=12-	=12-	=12-	=12-
!LO:LB:g=original	!	!	!	!	!	!	!	!	!	!	!
*xywh-#22:4472,1832,3366,608	*	*	*	*	*	*xywh-#408:4703,1709,3409,675	*	*	*	*	*
4c\	tra-	4.f\	ſi	4.F\	-boc-	4.A/	-boc-	.	.	.	.
.	.	.	.	.	.	.	.	8B/	tra-	8g/	-ca
4.F/	-boc-	.	.	.	.	.	.	4.A/	-boc-	2fny/	giu
.	.	8gny\	tra-	8E\	-ca	8G/	-ca	.	.	.	.
.	.	4a\	-boc-	1D	giu	1F	giu	.	.	.	.
8G/	-ca	.	.	.	.	.	.	8G/	-ca	.	.
4A/	giu	4a\	-ca	.	.	.	.	4F/	giu	4d/	da
4r	.	2A/	giu	.	.	.	.	4r	.	8f/	gl'oc-
.	.	.	.	.	.	.	.	.	.	8g\	.
4F/	da	.	.	.	.	.	.	4d\	da	8a\	.
.	.	.	.	.	.	.	.	.	.	8b\	.
2.G/	gl'oc-	4e/	da	4C/	da	2E/	da	4.g\	gl'oc-	2.cc\	.
.	.	2e/	gl'oc-	2C/	gl'oc-	.	.	.	.	.	.
.	.	.	.	.	.	.	.	8f\	.	.	.
=13-	=13-	=13-	=13-	=13-	=13-	=13-	=13-	=13-	=13-	=13-	=13-
.	.	.	.	.	.	4C/	gl'oc-	4e\	.	.	.
4G/	-chi	4g\	-chi	4GG/	-chi il	4D/	-chi	4d\	-chi	4b\	-chi il
2A/	fuo-	2f\	fuo-	2D/	co-	2D/	fuo-	1d	fuo-	2a\	co-
00A	-re	0e	-re	0AA	-re	0E	-re	.	.	0a	-re
.	.	.	.	.	.	.	.	4c#X/	.	.	.
.	.	.	.	.	.	.	.	4B/	.	.	.
=14-	=14-	=14-	=14-	=14-	=14-	=14-	=14-	=14-	=14-	=14-	=14-
.	.	.	.	.	.	.	.	1c#X	-re	.	.
!	!	!	!	!	!	!	!	!	!	!LO:SIC:v:t=custos dd	!
.	.	1r	.	0D	Sia	0F	Sia	2r	.	1r	.
.	.	.	.	.	.	.	.	2d\	Sia	.	.
=15-	=15-	=15-	=15-	=15-	=15-	=15-	=15-	=15-	=15-	=15-	=15-
!	!	!	!	!	!	!	!	!	!	!LO:LB:g=original	!
*	*	*	*	*	*	*	*	*	*	*xywh-#712:4761,2274,3331,722	*
.	.	1r	.	.	.	.	.	0.d	vo-	0dd	Sia
1r	.	0.f	Sia	0BB-X	vo-	1B-X	vo-	.	.	.	.
=16-	=16-	=16-	=16-	=16-	=16-	=16-	=16-	=16-	=16-	=16-	=16-
1r	.	.	.	.	.	0F	-ce il	.	.	1.b-X	vo-
2r	.	.	.	0FF	-ce	.	.	1cny	-ce	.	.
1A\	Sia	.	.	.	.	.	.	.	.	4a\	-ce il
.	.	.	.	.	.	.	.	.	.	4g/	do-
=17-	=17-	=17-	=17-	=17-	=17-	=17-	=17-	=17-	=17-	=17-	=17-
.	.	1.f	vo-	.	.	1F	do-	00r	.	1a	-lor
2d\	vo-	.	.	.	.	.	.	.	.	.	.
2B\	-ce il	.	.	1r	.	1G	-lor	.	.	0.g	mi-
2c\	do-	4e/	-ce il	.	.	.	.	.	.	.	.
.	.	4d/	do-	.	.	.	.	.	.	.	.
=18-	=18-	=18-	=18-	=18-	=18-	=18-	=18-	=18-	=18-	=18-	=18-
!	!	!LO:SIC:v:t=custos d	!	!	!	!	!	!LO:SIC:v:t=custos e	!	!	!
2B\	-lor	1e	-lor	0r	.	0G	mi-	.	.	.	.
1c	mi-	.	.	.	.	.	.	.	.	.	.
!	!	!LO:LB:g=original	!	!	!	!	!	!	!	!	!
*	*	*xywh-#104:4522,2288,3428,642	*	*	*	*	*	*	*	*	*
.	.	1d	mi-	.	.	.	.	.	.	.	.
2B\	-o	.	.	.	.	.	.	.	.	.	.
=19-	=19-	=19-	=19-	=19-	=19-	=19-	=19-	=19-	=19-	=19-	=19-
4r	.	4e/	-o	4r	.	2C/	-o	4r	.	2g/	-o
!LO:SIC:v:t=custos d	!	!	!	!LO:SIC:v:t=custos BB	!	!	!	!	!	!	!
!	!	!	!	!	!	!	!	!LO:LB:g=original	!	!	!
*	*	*	*	*	*	*	*	*xywh-#560:4664,2240,3348,783	*	*	*
4c\	E-	4g\	E-	4C/	E-	.	.	4e\	E-	.	.
!	!	!	!	!LO:LB:g=original	!	!	!	!	!	!	!
!LO:LB:g=original	!	!	!	!	!	!	!	!	!	!	!
*xywh-#22:4514,2378,3310,608	*	*	*	*xywh-#256:4767,2378,3421,667	*	*	*	*	*	*	*
4d\	-gli in	4g\	-gli in	4BBny/	-gli in	2r	.	4d\	-gli in	2r	.
4.c\	ve-	4.g\	ve-	4.C/	ve-	.	.	4.e\	ve-	.	.
.	.	.	.	.	.	1r	.	.	.	2r	.
8G/	-ce	8g\	-ce	8C/	-ce	.	.	8e\	-ce	.	.
4d\	di	4f\	di	4D/	di	.	.	4a\	di	.	.
4B\	me	2e/	me	4E\	me	.	.	4g\	me	4r	.
4c#X\	ti	.	.	4A\	ti	.	.	4e\	ti	4a\	ti
=20-	=20-	=20-	=20-	=20-	=20-	=20-	=20-	=20-	=20-	=20-	=20-
2d\	di-	1r	.	2D/	di-	2r	.	2f\	di-	2a\	di-
2B\	-ca a	.	.	2E\	-ca a	4r	.	2e\	-ca	2g#X/	-ca
!	!	!	!	!	!	!LO:SIC:v:t=custos A	!	!	!	!	!
.	.	.	.	.	.	4G#X/	a	.	.	.	.
!	!	!	!	!	!	!LO:LB:g=original	!	!	!	!	!
*	*	*	*	*	*	*xywh-#408:4749,2277,3363,660	*	*	*	*	*
2cny\	Di-	2r	.	2AA/	Di-	2A/	Di-	2r	.	2r	.
2B\	-o	4r	.	2E\	-o	2G#X/	-o	4r	.	4r	.
.	.	4g#X\	a	.	.	.	.	4e\	a	4bny\	a
=21-	=21-	=21-	=21-	=21-	=21-	=21-	=21-	=21-	=21-	=21-	=21-
2r	.	2a\	Di-	2r	.	2r	.	2A/	Di-	2cc\	Di-
4rc	.	2g#X\	-o	4r	.	4r	.	2e\	-o	2b\	-o
4G#X/	a	.	.	4E\	a	4Bny\	a	.	.	.	.
2A/	Di-	1r	.	2AA/	Di-	2c\	Di-	1r	.	1r	.
2G#X/	-o	.	.	2E\	-o	2B\	-o	.	.	.	.
=22-	=22-	=22-	=22-	=22-	=22-	=22-	=22-	=22-	=22-	=22-	=22-
00r	.	0r	.	1r	.	1r	.	1r	.	1r	.
!LO:TX:t=P:problem:przesunięcie ze względu na Henryka Kwinto	!	!	!	!LO:TX:t=P:problem:przesunięcie ze względu na Henryka Kwinto	!	!LO:TX:t=P:problem:przesunięcie ze względu na Henryka Kwinto	!	!LO:TX:t=P:problem:przesunięcie ze względu na Henryka Kwinto	!	!LO:TX:t=P:problem:przesunięcie ze względu na Henryka Kwinto	!
.	.	.	.	1ryy	.	1ryy	.	1ryy	.	1ryy	.
=23-	=23-	=23-	=23-	=23-	=23-	=23-	=23-	=23-	=23-	=23-	=23-
!LO:TX:t=P:problem:przesunięcie ze względu na Henryka Kwinto	!	!	!	!	!	!	!	!	!	!	!
.	.	00r	.	0ryy	.	0ryy	.	0ryy	.	0ryy	.
=24-	=24-	=24-	=24-	=24-	=24-	=24-	=24-	=24-	=24-	=24-	=24-
0yy	.	.	.	0D	a	0A	Sia	0f	Sia	1r	.
.	.	.	.	.	.	.	.	.	.	0dd	Sia
=25-	=25-	=25-	=25-	=25-	=25-	=25-	=25-	=25-	=25-	=25-	=25-
0r	.	0.f	Sia	0BB-X	Di-	1B-X	vo-	0d	uo-	.	.
.	.	.	.	.	.	0F	-ce il	.	.	1.b-X	vo-
=26-	=26-	=26-	=26-	=26-	=26-	=26-	=26-	=26-	=26-	=26-	=26-
2r	.	.	.	0FF	-o.	.	.	1c	-ce	.	.
1A	Sia	.	.	.	.	.	.	.	.	4a\	-ce il
!	!	!	!	!	!	!	!	!	!	!LO:SIC:v:t=custos a	!
.	.	.	.	.	.	.	.	.	.	4gny/	do-
!	!	!	!	!	!	!	!	!	!	!LO:LB:g=original	!
*	*	*	*	*	*	*	*	*	*	*xywh-#712:4753,2830,3339,638	*
.	.	1.f	vo-	.	.	1F	do-	00r	.	1a	-lor
2d\	vo-	.	.	.	.	.	.	.	.	.	.
=27-	=27-	=27-	=27-	=27-	=27-	=27-	=27-	=27-	=27-	=27-	=27-
2B\	-ce il	.	.	1r	.	1Gny	-lor	.	.	0.g	mi-
!LO:SIC:v:t=custos B	!	!	!	!	!	!	!	!	!	!	!
2c\	do-	4e/	-ce il	.	.	.	.	.	.	.	.
.	.	4d/	do-	.	.	.	.	.	.	.	.
!	!	!LO:SIC:v:t=custos d	!	!	!	!	!	!	!	!	!
!LO:LB:g=original	!	!	!	!	!	!	!	!	!	!	!
*xywh-#22:4500,2896,3317,635	*	*	*	*	*	*	*	*	*	*	*
2B\	-lor	1e	-lor	1r	.	0G	mi-	.	.	.	.
1c\	mi-	.	.	.	.	.	.	.	.	.	.
=28-	=28-	=28-	=28-	=28-	=28-	=28-	=28-	=28-	=28-	=28-	=28-
!	!	!LO:LB:g=original	!	!	!	!	!	!	!	!	!
*	*	*xywh-#104:4522,2855,3400,642	*	*	*	*	*	*	*	*	*
.	.	1d	mi-	1r	.	.	.	.	.	.	.
2B\	-o	.	.	.	.	.	.	.	.	.	.
4r	.	4e/	-o	4r	.	2C/	-o	4r	.	2g/	-o
!	!	!	!	!LO:SIC:v:t=custos BB	!	!	!	!LO:SIC:v:t=custos d	!	!	!
4c\	E-	4gny\	E-	4C/	.	.	.	4e\	E-	.	.
!	!	!	!	!	!	!	!	!LO:LB:g=original	!	!	!
!	!	!	!	!LO:LB:g=original	!	!	!	!	!	!	!
*	*	*	*	*xywh-#256:4767,2890,3382,752	*	*	*	*xywh-#560:4710,2816,3310,698	*	*	*
4d\	-gli in	4g\	-gli in	4BBny/	.	2r	.	4d\	-gli in	2r	.
4.c\	ve-	4.g\	ve-	4.C/	.	.	.	4.e\	ve-	.	.
=29-	=29-	=29-	=29-	=29-	=29-	=29-	=29-	=29-	=29-	=29-	=29-
.	.	.	.	.	.	1r	.	.	.	2r	.
8A\J	-ce	8g\	-ce	8C/	.	.	.	8e\	-ce	.	.
4d\	di	4f\	di	4D/	.	.	.	4a\	di	.	.
4B\	me	2e/	me	4E\	.	.	.	4g\	me	4r	.
4c#X\	ti	.	.	4A\	.	.	.	4e\	ti	4a\	ti
2d\	di-	1r	.	2D/	.	2r	.	2f\	di-	2a\	di-
2B\	-ca a	.	.	2E\	.	4r	.	2e\	-ca	2g#X/	-ca
.	.	.	.	.	.	4G#X/	a	.	.	.	.
=30-	=30-	=30-	=30-	=30-	=30-	=30-	=30-	=30-	=30-	=30-	=30-
2c\	Di-	2r	.	2AA/	.	2A/	Di-	2r	.	2r	.
!	!	!	!	!	!	!LO:SIC:v:t=custos B	!	!	!	!	!
2B\	-o	4r	.	2E\	.	2G#X/	-o	4r	.	4r	.
.	.	4g#X\	a	.	.	.	.	4e\	a	4bny\	a
2r	.	2a\	Di-	2r	.	2r	.	2A/	Di-	2cc\	Di-
4r	.	2g#X\	-o	4r	.	4r	.	2e\	-o	2b\	-o
!	!	!	!	!	!	!LO:LB:g=original	!	!	!	!	!
*	*	*	*	*	*	*xywh-#408:4741,2807,3394,629	*	*	*	*	*
4G#X/	a	.	.	4E\	.	4Bny\	a	.	.	.	.
=31-	=31-	=31-	=31-	=31-	=31-	=31-	=31-	=31-	=31-	=31-	=31-
2A/	Di-	1r	.	2AA/	.	2c\	Di-	1r	.	1r	.
2G#X/	-o	.	.	2E\	.	2B\	-o	.	.	.	.
1r	.	1r	.	1r	.	1r	.	1r	.	1r	.
=32-	=32-	=32-	=32-	=32-	=32-	=32-	=32-	=32-	=32-	=32-	=32-
1B	a	1g#X	a	1E	.	2r	.	1e	a	1b	a
.	.	.	.	.	.	2E/	a	.	.	.	.
1A	Di-	1a	Di-	1AA	.	1E	Di-	1e	Di-	1cc	Di-
=33-	=33-	=33-	=33-	=33-	=33-	=33-	=33-	=33-	=33-	=33-	=33-
00B	-o.	00g#X	-o.	00E	.	00E	-o.	00e	-o.	00b	-o
=34-	=34-	=34-	=34-	=34-	=34-	=34-	=34-	=34-	=34-	=34-	=34-
.	.	.	.	.	.	.	.	.	.	.	.
=-	=-	=-	=-	=-	=-	=-	=-	=-	=-	=-	=-
*-	*-	*-	*-	*-	*-	*-	*-	*-	*-	*-	*-
!!!system-decoration: s1,s2,s3,s4,s5,s6
!!!ENC: Andrzej Gręziak
!!!END: 2022-06-14
!!!ENC: Urszula Świątek
!!!END: 2022-07-25
!!!YEC: Copyright 2022 Narodowy Instytut Fryderyka Chopina (https://polishscores.org)
!!!YEM: License CC-BY-4.0 (https://creativecommons.org/licenses/by/4.0)
!!!IIIF: https://repozytorium.nifc.pl/islandora/object/pl-gd%3A57883/datastream/IIIF/view
!!!ENC-iiif: Jolanta Bujas-Poniatowska
!!!END-iiif: 2022-09-23
